X:627
T: ACH WAS THUT MIR MEIN HERZCHE SO WEH
N: E0574A
O: Europa, Mitteleuropa, Deutschland, Hessen, Odenwald
R: Liebes - Lied
M: 4/4
L: 1/8
K: F
 | F3GA2cA | AGGGF2z
G | AGAcdccc | cBB2A2z
B | Accfd3
c | cBBdc3
B | AGABc2c
c | B2c2A4

@@@ Tune index: 4277
